agir/events/components/EventSettings/images/illustration_bio.svg

<svg width="202" height="160" viewBox="0 0 202 160" fill="none" xmlns="http://www.w3.org/2000/svg">
<g clip-path="url(#clip0)">
<path d="M28.1206 94.4358C28.1206 64.6164 54.346 39.4801 90.1316 31.7631C95.9432 30.5131 101.847 29.7414 107.785 29.4557C108.074 29.4412 108.363 29.4268 108.654 29.4164C110.199 29.3525 111.756 29.3201 113.324 29.3194C116.052 29.3194 118.747 29.4164 121.409 29.6104C122.887 29.7157 124.351 29.8499 125.804 30.0129C139.929 31.598 152.929 35.8311 163.908 42.0331C165.28 42.8071 166.62 43.612 167.927 44.4479C170.321 45.9724 172.632 47.6231 174.851 49.393C189.517 61.0871 177.289 86.0481 169.645 101.763C149.015 144.176 160.38 159.552 113.324 159.552C66.2684 159.552 28.1206 130.399 28.1206 94.4358Z" fill="#F2F2F2"/>
<path d="M27.9129 156.378L31.5868 156.378L33.3341 142.207L27.9116 142.208L27.9129 156.378Z" fill="#FFB8B8"/>
<path d="M38.6726 159.789L27.1258 159.79L27.1254 155.329L34.2109 155.328C35.3941 155.328 36.5289 155.798 37.3656 156.634C38.2024 157.471 38.6725 158.606 38.6726 159.789Z" fill="#2F2E41"/>
<path d="M57.4791 156.378L61.153 156.378L62.9003 142.207L57.4778 142.208L57.4791 156.378Z" fill="#FFB8B8"/>
<path d="M68.2388 159.789L56.692 159.79L56.6916 155.329L63.7771 155.328C64.9603 155.328 66.0951 155.798 66.9318 156.634C67.7685 157.471 68.2387 158.606 68.2388 159.789Z" fill="#2F2E41"/>
<path d="M27.1181 151.159C26.7828 151.159 26.4578 151.043 26.199 150.83C25.9401 150.617 25.7634 150.32 25.6993 149.991L23.34 120.346C20.8002 95.2415 25.1476 86.3971 25.1918 86.3108L25.2395 86.2175L25.344 86.2236L45.7359 87.3972L50.0646 101.557L61.5068 116.931C63.3171 119.372 64.2788 122.339 64.2451 125.378L63.9555 147.794C63.9489 148.156 63.8073 148.503 63.5584 148.766C63.3095 149.03 62.9712 149.191 62.6098 149.218L56.6364 149.633C56.2629 149.66 55.8935 149.541 55.6064 149.301C55.3193 149.06 55.137 148.718 55.0981 148.345L53.6182 124.009C53.6139 123.984 53.6019 123.961 53.5839 123.942L36.6138 108.126C36.5578 108.066 36.4876 108.022 36.4098 107.997C36.332 107.972 36.249 107.967 36.1688 107.983C36.0886 107.998 36.0138 108.034 35.9513 108.087C35.8888 108.14 35.8407 108.208 35.8116 108.284L34.1002 149.482C34.1191 149.678 34.0973 149.876 34.0364 150.063C33.9754 150.25 33.8764 150.422 33.7457 150.569C33.6128 150.719 33.4501 150.84 33.268 150.925C33.0859 151.009 32.8883 151.054 32.6877 151.058L27.1448 151.159C27.1359 151.159 27.127 151.159 27.1181 151.159Z" fill="#2F2E41"/>
<path d="M41.4541 55.6392C46.4441 52.9114 48.278 46.6548 45.5502 41.6648C42.8224 36.6747 36.5658 34.8408 31.5758 37.5686C26.5858 40.2964 24.7519 46.553 27.4797 51.543C30.2075 56.5331 36.464 58.367 41.4541 55.6392Z" fill="#2F2E41"/>
<path d="M80.746 66.8164C80.3624 66.5999 79.9359 66.4701 79.4966 66.4362C79.0574 66.4024 78.616 66.4652 78.2037 66.6204C77.7914 66.7755 77.4181 67.0192 77.1101 67.3342C76.8021 67.6492 76.567 68.0279 76.4212 68.4437L69.5456 68.8291L68.7607 73.0645L78.4628 72.3838C79.1774 72.5824 79.9401 72.512 80.6062 72.1858C81.2724 71.8597 81.7958 71.3005 82.0773 70.6143C82.3587 69.928 82.3786 69.1624 82.1333 68.4624C81.8879 67.7624 81.3943 67.1768 80.746 66.8164Z" fill="#FFB8B8"/>
<path d="M23.9312 101.763C24.1217 101.366 24.2228 100.932 24.2274 100.491C24.232 100.051 24.1399 99.6148 23.9576 99.2137C23.7754 98.8126 23.5074 98.4563 23.1726 98.17C22.8377 97.8837 22.4442 97.6743 22.0197 97.5565L21.1774 90.7218L16.8992 90.2207L18.2242 99.8558C18.0736 100.582 18.1947 101.338 18.5644 101.981C18.9342 102.624 19.527 103.109 20.2304 103.345C20.9339 103.58 21.6992 103.549 22.3813 103.257C23.0634 102.966 23.6148 102.434 23.9313 101.763H23.9312Z" fill="#FFB8B8"/>
<path d="M36.0641 57.649C40.4235 57.649 43.9574 54.1151 43.9574 49.7558C43.9574 45.3965 40.4235 41.8625 36.0641 41.8625C31.7048 41.8625 28.1709 45.3965 28.1709 49.7558C28.1709 54.1151 31.7048 57.649 36.0641 57.649Z" fill="#FFB8B8"/>
<path d="M37.6204 90.1864C33.4233 90.1864 29.9061 89.8467 26.418 88.5996C24.982 88.0864 24.8285 87.4499 24.6266 86.6538C24.3096 85.4044 24.1359 70.6282 25.7722 65.7243C26.2162 64.4061 27.0246 63.2408 28.1038 62.3633C29.1829 61.4857 30.4887 60.932 31.8697 60.7661C33.4278 60.5825 38.0884 59.9237 40.7278 59.5474C42.0247 59.3524 43.3463 59.6761 44.4062 60.4485C45.1058 60.9738 45.4691 61.5381 45.486 62.1258L46.2032 87.1091C46.2266 87.831 45.9684 88.5339 45.4833 89.0691C44.9982 89.6043 44.3241 89.9301 43.6033 89.9776C41.9905 90.0866 39.8942 90.1864 37.6204 90.1864Z" fill="#F4ED0F"/>
<path d="M16.7427 96.3052C16.5481 96.3051 16.3555 96.2658 16.1765 96.1896C15.9974 96.1133 15.8356 96.0017 15.7007 95.8615C15.5658 95.7213 15.4607 95.5552 15.3914 95.3734C15.3222 95.1915 15.2904 94.9975 15.298 94.8031L15.5486 83.3446C15.6036 81.9286 16.0264 80.5512 16.7754 79.3482L26.5019 63.7458C26.8067 63.2597 27.2301 62.8591 27.7322 62.5816C28.2344 62.3041 28.7989 62.1588 29.3726 62.1595C29.9471 62.1596 30.5118 62.3075 31.0125 62.5891C31.5132 62.8707 31.933 63.2764 32.2315 63.7671C32.5416 64.2743 32.7123 64.8543 32.7262 65.4485C32.7402 66.0427 32.597 66.6301 32.311 67.1513L22.8763 84.2984L23.5257 94.8227C23.5292 95.0145 23.4944 95.2051 23.4235 95.3834C23.3525 95.5616 23.2469 95.724 23.1126 95.861C22.9783 95.998 22.8181 96.1069 22.6413 96.1814C22.4645 96.2559 22.2746 96.2944 22.0828 96.2948L16.7459 96.3052L16.7427 96.3052Z" fill="#F4ED0F"/>
<path d="M74.3861 74.7711C74.2572 74.9168 74.0999 75.0347 73.9239 75.1176C73.7479 75.2004 73.5568 75.2466 73.3624 75.2531L61.9117 75.8604C60.4965 75.9111 59.0924 75.5925 57.8376 74.9359L41.5515 66.4035C41.043 66.1372 40.611 65.7452 40.2966 65.265C39.9822 64.7847 39.7957 64.2321 39.7549 63.6595C39.7141 63.0869 39.8203 62.5134 40.0634 61.9934C40.3066 61.4734 40.6786 61.0242 41.1441 60.6884L41.2381 60.8187L41.1441 60.6884C41.6266 60.3412 42.1922 60.1277 42.7838 60.0693C43.3753 60.0109 43.9717 60.1098 44.5128 60.356L62.3177 68.4819L72.7717 67.0462C72.9621 67.0295 73.154 67.0508 73.3362 67.1088C73.5184 67.1667 73.6873 67.2602 73.8331 67.3839C73.9789 67.5075 74.0988 67.6589 74.1857 67.8291C74.2727 67.9994 74.325 68.1852 74.3397 68.3759L74.7492 73.697C74.7513 73.7237 74.7525 73.7502 74.7532 73.7766C74.7625 74.1429 74.6312 74.4988 74.3861 74.7711Z" fill="#F4ED0F"/>
<path d="M30.2175 48.6378L28.1697 43.1079L37.3776 40.4428L43.959 42.4652V48.6378H30.2175Z" fill="#2F2E41"/>
<path d="M39.8969 36.1708C39.7013 33.9521 38.8496 31.8419 37.4504 30.109C36.0512 28.376 34.1679 27.0988 32.0402 26.44C29.9126 25.7813 27.637 25.7707 25.5034 26.4098C23.3698 27.0489 21.4747 28.3087 20.0596 30.0286C18.1238 32.3813 17.2293 35.4081 16.5746 38.3837C15.92 41.3593 15.446 44.4133 14.1749 47.1822C12.9037 49.9512 10.6626 52.4668 7.70384 53.1936C4.74504 53.9205 1.15149 52.2838 0.467529 49.3148C0.573636 51.3214 1.08035 53.2864 1.95782 55.0941C2.83529 56.9017 4.06575 58.5154 5.57666 59.8401C8.14023 62.0633 12.3258 61.2772 14.8495 59.0088C17.3731 56.7404 18.6222 53.4113 19.7028 50.1946C20.7833 46.9779 21.8488 43.624 24.141 41.1219C26.4331 38.6197 32.9295 35.9603 35.8735 37.6477C38.1823 38.971 39.0108 38.1298 39.8969 36.1708Z" fill="#2F2E41"/>
<path d="M196.23 101.992H84.3925C82.9866 101.991 81.6388 101.432 80.6447 100.437C79.6506 99.4433 79.0914 98.0955 79.0898 96.6896V39.8067C79.0914 38.4008 79.6506 37.053 80.6447 36.0589C81.6388 35.0648 82.9866 34.5056 84.3925 34.504H196.23C197.636 34.5056 198.984 35.0648 199.978 36.0589C200.972 37.053 201.531 38.4008 201.533 39.8067V96.6896C201.531 98.0955 200.972 99.4433 199.978 100.437C198.984 101.432 197.636 101.991 196.23 101.992Z" fill="#E6E6E6"/>
<path d="M194.945 98.1357H85.678C84.9537 98.1349 84.2594 97.8468 83.7473 97.3347C83.2352 96.8226 82.9471 96.1283 82.9463 95.404V41.0921C82.9471 40.3678 83.2352 39.6735 83.7473 39.1614C84.2594 38.6493 84.9537 38.3612 85.678 38.3604H194.945C195.669 38.3612 196.363 38.6493 196.875 39.1614C197.387 39.6735 197.675 40.3678 197.676 41.0921V95.404C197.675 96.1283 197.387 96.8226 196.875 97.3347C196.363 97.8468 195.669 98.1349 194.945 98.1357Z" fill="white"/>
<path d="M183.054 90.2622H97.5688C96.8869 90.2622 96.233 89.9913 95.7508 89.5092C95.2687 89.027 94.9978 88.3731 94.9978 87.6912C94.9978 87.0094 95.2687 86.3554 95.7508 85.8733C96.233 85.3911 96.8869 85.1203 97.5688 85.1203H183.054C183.736 85.1203 184.39 85.3911 184.872 85.8733C185.354 86.3554 185.625 87.0094 185.625 87.6912C185.625 88.3731 185.354 89.027 184.872 89.5092C184.39 89.9913 183.736 90.2622 183.054 90.2622Z" fill="#E6E6E6"/>
<path d="M183.054 79.3356H97.5688C96.8869 79.3356 96.233 79.0647 95.7508 78.5825C95.2687 78.1004 94.9978 77.4464 94.9978 76.7646C94.9978 76.0827 95.2687 75.4288 95.7508 74.9466C96.233 74.4645 96.8869 74.1936 97.5688 74.1936H183.054C183.736 74.1936 184.39 74.4645 184.872 74.9466C185.354 75.4288 185.625 76.0827 185.625 76.7646C185.625 77.4464 185.354 78.1004 184.872 78.5825C184.39 79.0647 183.736 79.3356 183.054 79.3356Z" fill="#E6E6E6"/>
<path d="M116.208 66.6822H97.5686C96.8443 66.6814 96.15 66.3933 95.6379 65.8812C95.1258 65.3691 94.8377 64.6747 94.8369 63.9505V50.3709C94.8377 49.6467 95.1258 48.9524 95.6379 48.4403C96.15 47.9281 96.8443 47.6401 97.5686 47.6393H116.208C116.932 47.6401 117.627 47.9281 118.139 48.4403C118.651 48.9524 118.939 49.6467 118.94 50.3709V63.9505C118.939 64.6747 118.651 65.3691 118.139 65.8812C117.627 66.3933 116.932 66.6814 116.208 66.6822Z" fill="#F4ED0F"/>
<path d="M183.149 65.1951H139.763C139.081 65.1951 138.428 64.9243 137.945 64.4421C137.463 63.96 137.192 63.306 137.192 62.6242C137.192 61.9423 137.463 61.2883 137.945 60.8062C138.428 60.324 139.081 60.0532 139.763 60.0532H183.149C183.831 60.0532 184.484 60.324 184.967 60.8062C185.449 61.2883 185.72 61.9423 185.72 62.6242C185.72 63.306 185.449 63.96 184.967 64.4421C184.484 64.9243 183.831 65.1951 183.149 65.1951Z" fill="#CCCCCC"/>
<path d="M165.152 54.2685H139.763C139.081 54.2685 138.428 53.9976 137.945 53.5154C137.463 53.0333 137.192 52.3794 137.192 51.6975C137.192 51.0156 137.463 50.3617 137.945 49.8795C138.428 49.3974 139.081 49.1265 139.763 49.1265H165.152C165.834 49.1265 166.488 49.3974 166.97 49.8795C167.452 50.3617 167.723 51.0156 167.723 51.6975C167.723 52.3794 167.452 53.0333 166.97 53.5154C166.488 53.9976 165.834 54.2685 165.152 54.2685Z" fill="#CCCCCC"/>
<path d="M80.9129 160H17.2811C17.1959 160 17.1141 159.966 17.0538 159.906C16.9936 159.846 16.9597 159.764 16.9597 159.679C16.9597 159.593 16.9936 159.512 17.0538 159.451C17.1141 159.391 17.1959 159.357 17.2811 159.357H80.9129C80.9981 159.357 81.0798 159.391 81.1401 159.451C81.2004 159.512 81.2343 159.593 81.2343 159.679C81.2343 159.764 81.2004 159.846 81.1401 159.906C81.0798 159.966 80.9981 160 80.9129 160Z" fill="#CCCCCC"/>
</g>
<defs>
<clipPath id="clip0">
<rect width="201.047" height="160" fill="white" transform="translate(0.476562)"/>
</clipPath>
</defs>
</svg>

<svg width="202" height="160" fill="none" xmlns="http://www.w3.org/2000/svg"><g clip-path="url(#a)"><path d="M28.12 94.436c0-29.82 26.226-54.956 62.012-62.673a108.82 108.82 0 0 1 18.522-2.347c1.545-.064 3.102-.096 4.67-.097 2.728 0 5.423.097 8.085.291 1.478.106 2.942.24 4.395.403 14.125 1.585 27.125 5.818 38.104 12.02a84.695 84.695 0 0 1 4.019 2.415 80.12 80.12 0 0 1 6.924 4.945c14.666 11.694 2.438 36.655-5.206 52.37-20.63 42.413-9.265 57.789-56.321 57.789s-85.203-29.153-85.203-65.116Z" fill="#F2F2F2"/><path d="M27.913 156.378h3.674l1.747-14.171-5.422.001v14.17Z" fill="#FFB8B8"/><path d="m38.673 159.789-11.547.001v-4.461l7.085-.001a4.464 4.464 0 0 1 4.462 4.461Z" fill="#2F2E41"/><path d="M57.48 156.378h3.673l1.747-14.171-5.422.001.001 14.17Z" fill="#FFB8B8"/><path d="m68.239 159.789-11.547.001v-4.461l7.085-.001a4.464 4.464 0 0 1 4.462 4.461Zm-41.121-8.63a1.446 1.446 0 0 1-1.419-1.168l-2.359-29.645c-2.54-25.105 1.808-33.949 1.852-34.035l.047-.094.105.007 20.392 1.173 4.329 14.16 11.442 15.374a13.922 13.922 0 0 1 2.738 8.447l-.29 22.416a1.453 1.453 0 0 1-1.345 1.424l-5.974.415a1.444 1.444 0 0 1-1.538-1.288l-1.48-24.336a.13.13 0 0 0-.034-.067l-16.97-15.816a.479.479 0 0 0-.445-.143.487.487 0 0 0-.357.301L34.1 149.482a1.433 1.433 0 0 1-.832 1.443c-.182.084-.38.129-.58.133l-5.543.101h-.027ZM41.454 55.64c4.99-2.729 6.824-8.985 4.096-13.975-2.728-4.99-8.984-6.824-13.974-4.096-4.99 2.727-6.824 8.984-4.096 13.974 2.727 4.99 8.984 6.824 13.974 4.096Z" fill="#2F2E41"/><path d="M80.746 66.816a3.014 3.014 0 0 0-4.325 1.628l-6.875.385-.785 4.236 9.702-.681a3.03 3.03 0 0 0 2.283-5.568Zm-56.815 34.947a3.012 3.012 0 0 0-1.911-4.207l-.843-6.834-4.278-.501 1.325 9.635a3.03 3.03 0 0 0 5.707 1.907Zm12.133-44.114a7.893 7.893 0 1 0 0-15.786 7.893 7.893 0 0 0 0 15.786Z" fill="#FFB8B8"/><path d="M37.62 90.186c-4.197 0-7.714-.34-11.202-1.586-1.436-.514-1.59-1.15-1.791-1.946-.317-1.25-.491-16.026 1.145-20.93a7.36 7.36 0 0 1 6.098-4.958c1.558-.183 6.218-.842 8.858-1.219a4.987 4.987 0 0 1 3.678.902c.7.525 1.063 1.09 1.08 1.677l.717 24.983a2.784 2.784 0 0 1-2.6 2.869 89.984 89.984 0 0 1-5.983.208Z" fill="#F4ED0F"/><path d="M16.743 96.305a1.448 1.448 0 0 1-1.445-1.502l.25-11.458a8.16 8.16 0 0 1 1.227-3.997l9.727-15.602a3.385 3.385 0 0 1 2.87-1.587 3.346 3.346 0 0 1 2.86 1.608 3.375 3.375 0 0 1 .079 3.384l-9.435 17.147.65 10.525a1.446 1.446 0 0 1-1.443 1.472l-5.337.01h-.003Zm57.643-21.534a1.432 1.432 0 0 1-1.024.482l-11.45.607a8.157 8.157 0 0 1-4.074-.924L41.55 66.403a3.367 3.367 0 0 1-.407-5.715l.094.13-.094-.13a3.375 3.375 0 0 1 3.369-.332l17.805 8.126 10.454-1.436a1.445 1.445 0 0 1 1.568 1.33l.41 5.321.003.08c.01.366-.122.722-.367.994Z" fill="#F4ED0F"/><path d="m30.218 48.638-2.048-5.53 9.208-2.665 6.581 2.022v6.173H30.217Z" fill="#2F2E41"/><path d="M39.897 36.17a11.217 11.217 0 0 0-19.837-6.14c-1.936 2.352-2.83 5.38-3.485 8.355-.655 2.975-1.129 6.03-2.4 8.798-1.271 2.77-3.512 5.285-6.471 6.012-2.959.726-6.553-.91-7.236-3.88A15.055 15.055 0 0 0 5.577 59.84c2.563 2.223 6.749 1.437 9.273-.831 2.523-2.269 3.772-5.598 4.853-8.814 1.08-3.217 2.146-6.571 4.438-9.073 2.292-2.502 8.788-5.162 11.733-3.474 2.308 1.323 3.137.482 4.023-1.477Z" fill="#2F2E41"/><path d="M196.23 101.992H84.393a5.307 5.307 0 0 1-5.303-5.302V39.807a5.309 5.309 0 0 1 5.302-5.303H196.23a5.309 5.309 0 0 1 5.303 5.303V96.69a5.31 5.31 0 0 1-5.303 5.302Z" fill="#E6E6E6"/><path d="M194.945 98.136H85.678a2.735 2.735 0 0 1-2.732-2.732V41.092a2.735 2.735 0 0 1 2.732-2.732h109.267a2.733 2.733 0 0 1 2.731 2.732v54.312a2.736 2.736 0 0 1-2.731 2.732Z" fill="#fff"/><path d="M183.054 90.262H97.569a2.571 2.571 0 0 1 0-5.142h85.485a2.57 2.57 0 1 1 0 5.142Zm0-10.926H97.569a2.571 2.571 0 0 1 0-5.142h85.485a2.57 2.57 0 1 1 0 5.142Z" fill="#E6E6E6"/><path d="M116.208 66.682h-18.64a2.735 2.735 0 0 1-2.731-2.732V50.37a2.735 2.735 0 0 1 2.732-2.73h18.639a2.735 2.735 0 0 1 2.732 2.73v13.58a2.736 2.736 0 0 1-2.732 2.732Z" fill="#F4ED0F"/><path d="M183.149 65.195h-43.386a2.572 2.572 0 0 1 0-5.142h43.386a2.572 2.572 0 0 1 0 5.142Zm-17.997-10.926h-25.389a2.572 2.572 0 0 1 0-5.142h25.389a2.57 2.57 0 1 1 0 5.142ZM80.913 160H17.28a.323.323 0 0 1-.321-.321.323.323 0 0 1 .321-.322h63.632a.322.322 0 0 1 .227.549.322.322 0 0 1-.227.094Z" fill="#CCC"/></g><defs><clipPath id="a"><path fill="#fff" transform="translate(.477)" d="M0 0h201.047v160H0z"/></clipPath></defs></svg>
